X: 57
T:George White's Favourite [in D]
M:C|
L:1/8
R:Reel
K:D
FA[|:BF~F2 BFAF|EFFE DB,A,B,|DF~F2 BF~F2|BFAF E2FA|!
BF~F2 BFAF|EGFE DB,A,B,|DEFA dBAF|1EDEF DEFA:|2EDEF D3B|!
|:dBAF Adfe|dcde dBAF|Ad~d2 fded|Beed e3d|!
fdBd A2Bc|dBAB defe|~d3A BdAF|1EDEF A3B:|2EDEF DEFA|]!
